svgs/sharp-solid/books-medical.svg

<svg xmlns="http://www.w3.org/2000/svg" viewBox="0 0 576 512"><!--! Font Awesome Pro 6.6.0 by @fontawesome - https://fontawesome.com License - https://fontawesome.com/license (Commercial License) Copyright 2024 Fonticons, Inc. --><path d="M419.4 398.3L384 268.3l0-125.5 93.7-25.1 67.2 247L419.4 398.3zM469.3 86.8L384 109.6l0-93.4L445.7 0l23.6 86.8zM427.8 429.2l125.5-33.6L576 478.9 450.3 512l-22.5-82.8zM64 0L192 0l0 96L64 96 64 0zm0 416l128 0 0 96L64 512l0-96zM224 0L352 0l0 96L224 96l0-96zm0 128l128 0 0 256-128 0 0-256zm0 288l128 0 0 96-128 0 0-96zM64 160l64 0 0 64 64 0 0 64-64 0 0 64-64 0 0-64L0 288l0-64 64 0 0-64z"/></svg>

<svg xmlns="http://www.w3.org/2000/svg" viewBox="0 0 576 512"><!--! Font Awesome Pro 6.4.2 by @fontawesome - https://fontawesome.com License - https://fontawesome.com/license (Commercial License) Copyright 2023 Fonticons, Inc. --><path d="M419.4 398.3L384 268.3V142.8l93.7-25.1 67.2 247L419.4 398.3zM469.3 86.8L384 109.6V16.3L445.7 0l23.6 86.8zM427.8 429.2l125.5-33.6L576 478.9 450.3 512l-22.5-82.8zM64 0H192V96H64V0zm0 416H192v96H64V416zM224 0H352V96H224V0zm0 128H352V384H224V128zm0 288H352v96H224V416zM64 160h64v64h64v64H128v64H64V288H0V224H64V160z"/></svg>
